X: 291
T:Sir Watkin's Jigg
% Nottingham Music Database
S:Johnson 1750 (John Lagden), via EF
M:6/8
K:G
P:A
d|"C"efg "D"afd|"Em"g3 "Bm"d3|"C"ecc "G"dBB|"D"cAA "G"G3|
"G"DGA B2G|"G"DGA B2G|"G"Bcd "C"c2B|"D"A3 -A2:|
P:B
A|"D"FGA AFD|"D"A3 "G"d3|"D"AFF "A7"GEE|"D"D3 zG/2A/2B/2c/2|\
"G"d3 GA/2B/2c/2d/2|
"Am"e3 AB/2c/2d/2e/2|"Bm"f3 Bc/2d/2e/2f/2|"Em"g3 "D"d2c|"G"BGG "D7"cAA|\
"G"G3 -G2:|<end>
<start>
